app/img/who-suits/1.svg

<svg width="71" height="70" viewBox="0 0 71 70" fill="none" xmlns="http://www.w3.org/2000/svg">
<path fill-rule="evenodd" clip-rule="evenodd" d="M36.2772 1.18644V2.37288C36.2772 3.02814 35.746 3.55932 35.0907 3.55932C34.4355 3.55932 33.9043 3.02814 33.9043 2.37288V1.18644C33.9043 0.531188 34.4355 0 35.0907 0C35.746 0 36.2772 0.531188 36.2772 1.18644ZM62.592 34.7983C63.7295 34.7989 64.7066 35.6067 64.921 36.7239L70.1152 63.3903C70.3177 64.4348 70.0424 65.5151 69.3647 66.3352C68.687 67.1553 67.6779 67.6292 66.614 67.6271H41.8423C40.8315 69.2656 37.8749 70 35.0903 70C32.276 70 29.2909 69.2478 28.3086 67.6271H3.56652C2.50238 67.6293 1.4931 67.1552 0.815334 66.3348C0.137571 65.5144 -0.137571 64.4338 0.0653282 63.3892L5.26076 36.7156C5.47709 35.6008 6.45295 34.7955 7.58855 34.7947H9.8855L10.054 33.7815C10.2251 32.7635 11.0312 31.9708 12.0519 31.8168C12.2347 31.7898 12.4243 31.765 12.615 31.7401C12.7437 31.7232 12.873 31.7063 13.0011 31.6886C12.1185 28.9285 12.5371 25.917 14.1389 23.5022C14.0637 23.17 14.024 22.8307 14.0203 22.4901C14.0214 20.5253 15.2 18.7525 17.0113 17.9911C17.1216 16.1983 18.0413 14.5529 19.5107 13.5197C20.9802 12.4865 22.8397 12.1778 24.5642 12.6806C26.1172 10.6781 28.5056 9.50185 31.0398 9.49148C32.6126 9.49307 34.1512 9.95006 35.4699 10.8072C36.5167 9.81967 37.9496 9.35074 39.3777 9.52836C40.8058 9.70599 42.0802 10.5116 42.8532 11.7256C42.9017 11.724 42.9488 11.7203 42.9963 11.7165C43.0592 11.7116 43.1225 11.7066 43.1901 11.7066C48.0276 11.7357 52.1645 15.1923 53.053 19.9476C54.4428 20.2438 55.633 21.1341 56.3098 22.3836C56.9865 23.633 57.0819 25.1163 56.5708 26.4422C57.5382 28.0249 57.861 29.9187 57.4725 31.7325C57.5585 31.7443 57.645 31.7551 57.7317 31.7659C57.8711 31.7833 58.011 31.8007 58.15 31.8227C59.1654 31.9822 59.9644 32.7745 60.1325 33.7886L60.301 34.7983H62.592ZM16.4834 21.8249C16.185 22.9086 16.6447 24.0584 17.6081 24.6376V24.6329C18.1603 24.9749 18.3348 25.6974 17.9996 26.2537C17.6644 26.8101 16.9441 26.9935 16.3836 26.6652C16.0627 26.4664 15.7664 26.2302 15.5009 25.9617C14.4381 28.455 14.8548 31.3329 16.5811 33.4225C18.3073 35.512 21.0549 36.4642 23.704 35.891C23.6364 35.499 23.6003 35.1023 23.596 34.7046C21.5042 34.4778 19.9174 32.7143 19.9121 30.6101C19.9108 29.952 20.4405 29.416 21.0986 29.4095C21.4116 29.406 21.7131 29.5277 21.9359 29.7477C22.1587 29.9676 22.2844 30.2674 22.285 30.5805V30.6101C22.2999 31.5456 23.0366 32.3098 23.9709 32.359C24.1389 31.826 24.3665 31.3138 24.6496 30.832C24.8681 30.4673 25.2646 30.2468 25.6897 30.2537C26.1149 30.2605 26.504 30.4937 26.7107 30.8653C26.9173 31.2369 26.91 31.6905 26.6915 32.0552C25.3426 34.314 25.9413 37.2288 28.0712 38.773C30.2011 40.3173 33.1576 39.98 34.885 37.9957C35.2133 37.6146 35.7463 37.4819 36.215 37.6647C37.4633 38.1597 38.8082 38.3626 40.1469 38.2579C40.8417 38.2123 41.5289 38.0861 42.1947 37.8818C42.5999 37.7572 43.0408 37.8583 43.3514 38.1469C43.6619 38.4355 43.7949 38.8679 43.7002 39.2811C43.6055 39.6944 43.2975 40.0257 42.8923 40.1503C42.2974 40.3262 41.6891 40.4532 41.0735 40.53C41.4935 41.3652 42.483 42.1329 45.0469 42.9919C46.3976 43.421 47.6008 44.2205 48.5196 45.2995C48.886 45.7557 49.5056 45.9223 50.0513 45.7112C50.523 45.5101 50.8293 45.047 50.8296 44.5342C50.8296 44.404 50.8087 44.2747 50.7679 44.151C50.545 43.4429 50.2483 42.7601 49.8828 42.1139C49.2066 42.3972 48.5005 42.6034 47.7781 42.7285C47.7156 42.7379 47.6526 42.7427 47.5894 42.7427C46.9721 42.7404 46.4597 42.2651 46.411 41.6497C46.3624 41.0343 46.7938 40.4844 47.4032 40.3852C49.3617 40.0663 51.1165 38.9904 52.2889 37.3895C50.466 37.9411 48.4997 37.7593 46.8088 36.8829C46.3089 36.6234 45.842 36.3047 45.4182 35.9337C44.9447 36.1239 44.4396 36.2233 43.9293 36.2268C42.3618 36.231 40.9281 35.3439 40.2323 33.9393C40.0426 33.5601 40.0696 33.1086 40.3031 32.7547C40.5367 32.4009 40.9412 32.1985 41.3644 32.2238C41.7876 32.2491 42.1652 32.4983 42.3549 32.8774C42.5907 33.3262 43.0059 33.654 43.4971 33.7793C43.9884 33.9046 44.5098 33.8157 44.9318 33.5347C45.6505 33.0341 45.8938 32.0825 45.5037 31.2983C45.3129 30.9195 45.3387 30.4678 45.5713 30.1133C45.804 29.7587 46.2081 29.5552 46.6314 29.5794C47.0548 29.6035 47.4331 29.8518 47.6238 30.2305C48.3052 31.5723 48.1845 33.1816 47.3106 34.4068C47.4932 34.5398 47.6851 34.6596 47.8849 34.7651C49.9244 35.7815 52.39 35.329 53.9357 33.6546L53.9642 33.6249C55.1966 32.2474 55.5812 30.3083 54.9679 28.5647C54.6932 28.7807 54.3961 28.9664 54.0816 29.1188C53.9244 29.1933 53.7526 29.2318 53.5786 29.2315C53.0277 29.2261 52.553 28.8422 52.4325 28.3047C52.312 27.7671 52.5773 27.2173 53.0732 26.9773C53.546 26.7551 53.9385 26.392 54.1967 25.9379C54.7747 24.9096 54.5555 23.6171 53.6708 22.8368C52.786 22.0565 51.4763 22.0006 50.5283 22.7025C50.1892 22.9568 49.7401 23.0109 49.3503 22.8444C48.9605 22.6779 48.6892 22.3161 48.6385 21.8953C48.5878 21.4744 48.7654 21.0585 49.1045 20.8042C49.5663 20.4593 50.0863 20.2001 50.6398 20.0389C49.8676 16.7241 47.0109 14.3092 43.6137 14.0996C43.6158 14.1401 43.6214 14.1796 43.6269 14.2191C43.634 14.2687 43.641 14.3181 43.641 14.3689C43.641 15.0242 43.1098 15.5554 42.4545 15.5554C41.7993 15.5554 41.2681 15.0242 41.2681 14.3689C41.2681 12.9906 40.1507 11.8733 38.7724 11.8733C37.3941 11.8733 36.2767 12.9906 36.2767 14.3689C36.2767 15.0242 35.7455 15.5554 35.0903 15.5554C34.435 15.5554 33.9038 15.0242 33.9038 14.3689C33.9106 13.8387 34.0048 13.3131 34.1826 12.8135C33.2492 12.1991 32.1573 11.8693 31.0398 11.8644C28.9864 11.8735 27.0878 12.957 26.0354 14.7201C25.7618 15.1841 25.5545 15.6841 25.4196 16.2056C25.2447 16.8266 24.6056 17.194 23.9809 17.0326C23.3562 16.8713 22.975 16.2404 23.1226 15.6123C23.1932 15.3607 23.2763 15.1129 23.3718 14.8696C23.2289 14.8454 23.0847 14.8295 22.9399 14.8222C21.2411 14.8268 19.7759 16.0163 19.4221 17.6779C20.7603 17.8107 21.9812 18.4995 22.7869 19.5762C23.0395 19.9166 23.0914 20.3659 22.9229 20.7549C22.7544 21.1438 22.3913 21.4134 21.9702 21.462C21.5491 21.5106 21.1341 21.3308 20.8814 20.9905C20.4164 20.356 19.6761 19.982 18.8894 19.9844C17.7654 19.9888 16.7818 20.7412 16.4834 21.8249ZM13.7344 33.9854L13.7342 33.9854L13.7341 33.9855L13.7339 33.9855C13.2811 34.0444 12.8286 34.1032 12.3877 34.1683L8.10584 59.9319C16.4791 57.1399 25.5327 57.1432 33.9038 59.9414V45.0847C33.9038 44.4295 34.435 43.8983 35.0903 43.8983C35.7455 43.8983 36.2767 44.4295 36.2767 45.0847V59.9366C44.6488 57.141 53.7026 57.141 62.0747 59.9366L57.7916 34.1742C57.4801 34.1224 57.1699 34.0837 56.8601 34.0449L56.86 34.0449L56.8598 34.0449L56.8597 34.0449L56.8595 34.0448L56.8594 34.0448L56.8593 34.0448L56.8591 34.0448L56.859 34.0447L56.7167 34.0269L56.5969 34.0117C56.3947 34.348 56.1662 34.6677 55.9135 34.9679C55.3939 37.3977 53.9885 39.5471 51.971 40.9974C52.4016 41.7646 52.753 42.5736 53.0198 43.4119C53.1403 43.7737 53.2012 44.1528 53.2001 44.5342C53.2 45.9968 52.3275 47.3183 50.9827 47.893C50.5373 48.0824 50.0583 48.18 49.5744 48.1802C48.4678 48.1726 47.4201 47.6805 46.7079 46.8335C46.0673 46.0878 45.2304 45.5366 44.2923 45.2425C40.8125 44.0763 39.1562 42.7593 38.5832 40.5857C37.7438 40.5282 36.9133 40.3778 36.1071 40.1373C34.4134 41.7153 32.0812 42.4141 29.7988 42.0273C27.5165 41.6404 25.5448 40.2122 24.4657 38.1642C20.4497 39.1505 16.2542 37.4484 14.0606 33.9429L13.7344 33.9854ZM2.39313 63.8448C2.32671 64.19 2.41809 64.5468 2.64228 64.8176C2.8694 65.0943 3.20859 65.2545 3.56652 65.2542H28.0689L28.4225 60.9534C21.8893 59.7201 15.1509 60.1476 8.82601 62.1968C8.03879 62.4432 7.18012 62.2646 6.55643 61.7247C5.93273 61.1849 5.63286 60.3607 5.76381 59.5463L9.48686 37.1712H7.58855L2.39313 63.8448ZM30.3516 66.4063C30.5925 66.7824 32.2321 67.6271 35.0903 67.6271C37.9484 67.6271 39.5881 66.7824 39.8289 66.4051L39.4208 61.4742C38.1163 61.8015 36.84 62.2323 35.604 62.7627C35.4439 62.8405 35.2683 62.8811 35.0903 62.8814C34.9127 62.8803 34.7377 62.8398 34.5777 62.7627C33.341 62.2354 32.0643 61.8074 30.7598 61.4825L30.3516 66.4063ZM66.614 65.2542C66.972 65.2545 67.3111 65.0943 67.5383 64.8176C67.7641 64.5471 67.8568 64.1897 67.791 63.8436L62.5944 37.1724H60.6961L64.4156 59.5427C64.5479 60.3558 64.2505 61.1794 63.6292 61.7203C63.0079 62.2612 62.1511 62.4423 61.364 62.1992C55.0373 60.1455 48.2961 59.7143 41.7593 60.9451L42.1152 65.2542H66.614ZM31.0738 28.5898C30.6346 28.1038 30.6723 27.354 31.158 26.9145C31.644 26.4754 32.3938 26.5131 32.8333 26.9988C34.4574 28.7383 37.1048 29.0401 39.0787 27.7106C40.1048 27.0044 40.8108 25.922 41.0434 24.6983C41.1164 24.2755 41.412 23.925 41.8164 23.7818C42.2207 23.6385 42.671 23.7247 42.9939 24.0072C43.3167 24.2897 43.4619 24.7245 43.3736 25.1444C42.8019 28.0796 40.4663 30.3504 37.5162 30.8393C36.6484 33.137 34.4446 34.654 31.9885 34.6442C31.3333 34.6442 30.8021 34.113 30.8021 33.4578C30.8021 32.8025 31.3333 32.2713 31.9885 32.2713C33.1357 32.2731 34.2124 31.7179 34.8763 30.7823C33.4104 30.468 32.0802 29.701 31.0738 28.5898ZM27.0224 25.627C27.6776 25.627 28.2088 25.0958 28.2088 24.4405C28.2088 23.6224 28.5338 22.8378 29.1123 22.2593C29.6908 21.6808 30.4754 21.3558 31.2936 21.3558C31.9488 21.3558 32.48 20.8246 32.48 20.1694C32.48 19.5141 31.9488 18.9829 31.2936 18.9829C28.2808 18.9862 25.8392 21.4277 25.8359 24.4405C25.8359 24.7552 25.9609 25.057 26.1834 25.2795C26.4059 25.502 26.7077 25.627 27.0224 25.627ZM54.5604 8.51385L53.374 9.70029C53.0655 9.99817 52.9418 10.4393 53.0504 10.8541C53.159 11.2689 53.4829 11.5929 53.8978 11.7015C54.3126 11.81 54.7537 11.6863 55.0516 11.3779L56.238 10.1915C56.5465 9.89359 56.6702 9.45247 56.5616 9.03765C56.453 8.62284 56.129 8.29889 55.7142 8.19031C55.2994 8.08173 54.8583 8.20542 54.5604 8.51385ZM17.0654 10.9931C16.8818 11.4364 16.4493 11.7254 15.9695 11.7255C15.6549 11.7255 15.3532 11.6004 15.1307 11.3779L13.9443 10.1915C13.6358 9.89359 13.5122 9.45247 13.6207 9.03765C13.7293 8.62284 14.0533 8.29889 14.4681 8.19031C14.8829 8.08173 15.324 8.20542 15.6219 8.51385L16.8083 9.70029C17.1475 10.0396 17.249 10.5498 17.0654 10.9931ZM25.1017 6.73306C25.2576 6.73272 25.4119 6.7021 25.5561 6.64289C25.8469 6.52243 26.0779 6.29135 26.1983 6.00052C26.3187 5.7097 26.3186 5.38295 26.198 5.09221L24.8348 1.80339C24.6786 1.40282 24.3179 1.11807 23.8921 1.0591C23.4662 1.00012 23.0418 1.17616 22.7826 1.51922C22.5235 1.86228 22.4702 2.31869 22.6434 2.71221L24.0054 6.00102C24.1892 6.44427 24.6219 6.73318 25.1017 6.73306ZM45.3448 1.80333C45.5956 1.19841 46.2892 0.911129 46.8943 1.16147C47.1854 1.28191 47.4166 1.51319 47.537 1.8043C47.6574 2.09541 47.6571 2.42245 47.5362 2.71333L46.1741 6.00215C45.9903 6.44539 45.5577 6.7343 45.0779 6.73418C44.922 6.73385 44.7676 6.70322 44.6234 6.64401C44.3323 6.52356 44.1011 6.29229 43.9807 6.00118C43.8603 5.71007 43.8606 5.38302 43.9816 5.09215L45.3448 1.80333ZM59.2058 20.8599C59.3618 20.8597 59.5162 20.8286 59.6602 20.7686L62.9478 19.4065C63.3395 19.2444 63.6149 18.8857 63.6703 18.4654C63.7258 18.0451 63.5528 17.6273 63.2165 17.3691C62.8803 17.111 62.4319 17.0519 62.0402 17.214L58.7514 18.576C58.2266 18.7916 57.9278 19.3486 58.0386 19.905C58.1493 20.4615 58.6384 20.8617 59.2058 20.8599ZM12.0713 20.1268C11.8203 20.7322 11.1261 21.0196 10.5206 20.7686L7.23299 19.4066C6.62753 19.156 6.33989 18.462 6.59053 17.8565C6.84116 17.2511 7.53516 16.9634 8.14062 17.2141L11.4294 18.5761C12.0349 18.8271 12.3223 19.5213 12.0713 20.1268Z" fill="#49B3F7"/>
</svg>

<svg width="71" height="70" fill="none" xmlns="http://www.w3.org/2000/svg"><path fill-rule="evenodd" clip-rule="evenodd" d="M36.277 1.186v1.187a1.186 1.186 0 01-2.373 0V1.186a1.186 1.186 0 012.373 0zm26.315 33.612c1.138 0 2.115.809 2.329 1.926l5.194 26.666a3.56 3.56 0 01-3.501 4.237H41.842C40.832 69.266 37.875 70 35.09 70c-2.814 0-5.8-.752-6.781-2.373H3.567A3.56 3.56 0 01.065 63.39l5.196-26.673a2.373 2.373 0 012.328-1.921h2.296l.169-1.014a2.387 2.387 0 011.998-1.964c.183-.027.372-.052.563-.077l.386-.051a9.548 9.548 0 011.138-8.187 4.822 4.822 0 01-.119-1.012 4.883 4.883 0 012.991-4.499 5.91 5.91 0 017.553-5.31 8.237 8.237 0 016.476-3.19 8.144 8.144 0 014.43 1.316 4.827 4.827 0 017.383.919c.049-.002.096-.006.143-.01.063-.004.127-.01.194-.01a10.095 10.095 0 019.863 8.242 4.855 4.855 0 013.518 6.494 7.237 7.237 0 01.901 5.29l.26.034c.14.017.279.035.418.057a2.385 2.385 0 011.983 1.966l.168 1.01h2.291zM16.483 21.825a2.506 2.506 0 001.125 2.813v-.005a1.186 1.186 0 01-1.224 2.032 4.787 4.787 0 01-.883-.703 7.25 7.25 0 008.203 9.929 7.455 7.455 0 01-.108-1.186 4.129 4.129 0 01-3.684-4.095 1.198 1.198 0 011.187-1.2 1.173 1.173 0 011.186 1.17v.03a1.78 1.78 0 001.686 1.749 7.412 7.412 0 01.679-1.527 1.19 1.19 0 012.042 1.223 5.08 5.08 0 008.193 5.94 1.186 1.186 0 011.33-.33 8.804 8.804 0 003.932.593 8.987 8.987 0 002.048-.376 1.187 1.187 0 01.697 2.268c-.595.176-1.203.303-1.819.38.42.835 1.41 1.603 3.974 2.462A7.573 7.573 0 0148.52 45.3c.366.456.986.622 1.531.411a1.28 1.28 0 00.779-1.177c0-.13-.021-.26-.062-.383-.223-.708-.52-1.39-.885-2.037a9.754 9.754 0 01-2.105.614 1.187 1.187 0 01-.375-2.343 7.562 7.562 0 004.886-2.996 7.309 7.309 0 01-5.48-.506c-.5-.26-.967-.578-1.39-.95a4.07 4.07 0 01-1.49.294 4.114 4.114 0 01-3.697-2.288 1.187 1.187 0 112.123-1.062 1.79 1.79 0 002.577.658c.718-.5.962-1.452.572-2.237a1.187 1.187 0 112.12-1.067 4.041 4.041 0 01-.313 4.176c.182.133.374.253.574.358a5.124 5.124 0 006.05-1.11l.03-.03a5.067 5.067 0 001.003-5.06 4.868 4.868 0 01-.886.554 1.17 1.17 0 01-.503.113 1.186 1.186 0 01-.506-2.255 2.53 2.53 0 001.124-1.04 2.501 2.501 0 00-3.669-3.235 1.187 1.187 0 01-1.423-1.898 4.816 4.816 0 011.535-.765 7.701 7.701 0 00-7.026-5.94c.002.041.007.08.013.12.007.05.014.1.014.15a1.186 1.186 0 11-2.373 0 2.496 2.496 0 00-4.991 0 1.186 1.186 0 11-2.373 0c.007-.53.1-1.056.279-1.556a5.762 5.762 0 00-3.143-.949 5.858 5.858 0 00-5.005 2.856c-.273.464-.48.964-.615 1.486a1.186 1.186 0 01-2.297-.594c.07-.251.153-.5.249-.742a3.703 3.703 0 00-.432-.048 3.607 3.607 0 00-3.518 2.856 4.794 4.794 0 013.365 1.898 1.187 1.187 0 01-1.906 1.415 2.46 2.46 0 00-1.992-1.007 2.506 2.506 0 00-2.406 1.84zm-2.749 12.16c-.453.06-.905.118-1.346.183L8.106 59.932a40.733 40.733 0 0125.798.01V45.084a1.186 1.186 0 012.373 0v14.852a40.726 40.726 0 0125.798 0l-4.283-25.763c-.312-.052-.622-.09-.932-.13h-.001l-.142-.017-.12-.015a7.43 7.43 0 01-.684.956 10.002 10.002 0 01-3.942 6.03c.43.767.782 1.576 1.049 2.414.12.362.181.74.18 1.122a3.653 3.653 0 01-2.217 3.359c-.446.19-.925.287-1.409.287a3.779 3.779 0 01-2.866-1.346 5.258 5.258 0 00-2.416-1.592c-3.48-1.166-5.136-2.483-5.709-4.656-.84-.058-1.67-.208-2.476-.449a7.432 7.432 0 01-11.641-1.973 9.58 9.58 0 01-10.405-4.221l-.327.042zm-11.34 29.86c-.067.345.024.702.248.973.227.276.567.436.925.436h24.502l.354-4.3a39.692 39.692 0 00-19.597 1.243 2.381 2.381 0 01-3.062-2.65L9.487 37.17H7.589L2.393 63.845zm27.958 2.561c.24.376 1.88 1.221 4.738 1.221 2.858 0 4.498-.845 4.739-1.222l-.408-4.93a25.05 25.05 0 00-3.817 1.288 1.18 1.18 0 01-1.026 0 25.362 25.362 0 00-3.818-1.28l-.408 4.923zm36.262-1.152a1.195 1.195 0 001.177-1.41l-5.197-26.672h-1.898l3.72 22.37a2.38 2.38 0 01-3.052 2.657 39.703 39.703 0 00-19.605-1.254l.356 4.31h24.499zM31.074 28.59a1.186 1.186 0 011.76-1.591 4.843 4.843 0 006.245.712 4.729 4.729 0 001.964-3.013 1.186 1.186 0 112.33.446 7.16 7.16 0 01-5.857 5.695 5.884 5.884 0 01-5.527 3.805 1.186 1.186 0 010-2.373 3.534 3.534 0 002.887-1.489 7.154 7.154 0 01-3.802-2.192zm-4.052-2.963c.656 0 1.187-.531 1.187-1.186a3.085 3.085 0 013.085-3.085 1.186 1.186 0 000-2.373 5.464 5.464 0 00-5.458 5.457 1.187 1.187 0 001.186 1.187zM54.56 8.514L53.374 9.7a1.186 1.186 0 101.678 1.678l1.186-1.187a1.186 1.186 0 10-1.678-1.677zm-37.495 2.48a1.186 1.186 0 01-1.934.384l-1.187-1.187a1.187 1.187 0 111.678-1.677L16.808 9.7c.34.34.441.85.257 1.293zm8.037-4.26a1.187 1.187 0 001.096-1.64l-1.363-3.29a1.187 1.187 0 10-2.192.908l1.362 3.289c.184.443.617.732 1.097.732zm20.243-4.93a1.186 1.186 0 112.191.91l-1.362 3.288a1.186 1.186 0 11-2.192-.91l1.363-3.289zm13.86 19.056c.157 0 .311-.031.455-.091l3.288-1.362a1.186 1.186 0 10-.908-2.193l-3.289 1.362a1.186 1.186 0 00.455 2.284zm-47.134-.733a1.187 1.187 0 01-1.55.642l-3.288-1.362a1.186 1.186 0 11.908-2.193l3.288 1.362c.606.251.893.945.642 1.55z" fill="#49B3F7"/></svg>
